X:1
T:Title
%%score ( 1 2 ) { 3 | 4 }
L:1/8
Q:1/4=92
M:6/8
K:Db
V:1 treble nm="Grand Piano, Soprano"
V:2 treble 
V:3 treble nm="Choir Pad, O Wonderful Love"
V:4 bass 
V:1
 [DF]/[EG]<[FA][_F=G]/ [=FA] [Fd]2 | [GB] [FA]2- [FA] [DF]2 | [DF] [EA]2 [GB] [EG]2 | %3
w: By~Daniel~Brink~Towner * * * * *|||
 [EA] [DF]2- [DF]2- [DF]/ z/ | [DF]/[EG]<[FA][_F=G]/ [=FA] [Fd]2 | [GB] [FA]2- [FA] [DF]2 | %6
w: |||
 [DF] [DE]2 [D=G] [DB]2 | [Ec] [CA]2- [CA]2- [CA]/ z/ | [CA][CG][DF] [EG] [Gc]2 | %9
w: |||
 [GB] [GB]2- [GB] [FA]2 | [FA][EG][DF] [EG] [Gc]2 | [GB] [FA]2- [FA]2- [FA]/ z/ | %12
w: |||
 [FA]/[FA]<[Fd][Gc]/ [Ad]ed | [GB] [FA]2- [FA] [DF]2 | [FA] [EA]2 E [DA]2 | %15
w: |||
 [CG] [DF]2- [DF]2- [DF]/ z/ | [FA]/[FA]<[Fd][Gc]/ [Ad]ed | [GB] [FA]2- [FA] [Fd]2 | %18
w: |||
 [_Fd]dA [D=F] [EG]2 | [CE] D2- D3- | D3 z3 |] %21
w: |||
V:2
 x6 | x6 | x6 | x6 | x6 | x6 | x6 | x6 | x6 | x6 | x6 | x6 | z3 z G2 | x6 | x6 | x6 | z3 z G2 | %17
 x6 | z =F2 z3 | x6 | x6 |] %21
V:3
 A,/A,<DD/ D A,2 | D D2- D A,2 | A, C2 C C2 | C D2- D2- D/ z/ | A,/A,<DD/ D A,2 | %5
 D D2- D[K:bass] A,2 | A, =G,2 B, G,2 | =G, A,2- A,2- A,/ z/ | A, A,2 A, A,2 | C D2- D D2 | %10
 DCD A, A,2 | C D2- D2- D/ z/ | D/D<[K:bass]A,A,/ A, B,2 | D[K:treble] D2- D A,2 | %14
 D C2[K:bass] A, A,2 | A, A,2- A,2- A,/ z/ | D/D<A,A,/ A, B,2 | D D2- D D2 | %18
 =G,[K:bass]A,D A, A,2 | G, F,2- F,3- | F,3 z3 |] %21
V:4
 D,/D,<D,D,/ D, D,2 | D, D,2- D, D,2 | D, A,,2 A,, A,,2 | A,, D,2- D,2- D,/ z/ | %4
 D,/D,<D,D,/ D, D,2 | D, D,2- D, D,2 | D, E,2 E, E,2 | .E,3 z3 | z6 | A, D,2- D, D,2 | %10
 D, A,,2 A,, A,,2 | A,, D,2- D,2- D,/ z/ | D,/D,<D,E,/ F, G,2 | G, D,2- D, D,2 | D, A,2 G, F,2 | %15
 E, D,2- D,2- D,/ z/ | D,/D,<D,E,/ F, G,2 | G, D,2- D, B,,2 | =A,, _A,,2 A,, A,,2 | A,, D,2- D,3- | %20
 D,3 z3 |] %21

